!!!COM: Music21
!!!OTL: Ei Vai
!!!OMV: pezas_pasodobles_ei-vai_ei-vai-partitura.musicxml
**kern
*I"Bagpipes
*I'Bag
*clefG^2
*k[]
*M2/4
=1
!LO:TX:a:t=Allegretto
*MM120
!LO:TX:a:t=[quarter]=120
4.r
8aa
=||
4.gg
8aa
=
4.gg
8aa
=
8.ggL
16aaJk
8ggL
8eeJ
=
4cc
8ddL
8eeJ
=
8.ffL
16ggJk
8ffL
8eeJ
=
8.ddL
16eeJk
8ffL
8eeJ
=
8.ddL
16ccJk
8bL
8ddJ
=
4.cc
8aa
=||
4.gg
8aa
!!linebreak:original
=
4.gg
8aa
=
8.ggL
16aaJk
8ggL
8eeJ
=
4cc
8ddL
8eeJ
=
8.ffL
16ggJk
8ffL
8eeJ
=
8.ddL
16eeJk
8ffL
8eeJ
=
8.ddL
16ccJk
8bL
8ddJ
=
4cc
8ggL
8aaJ
!!linebreak:original
=||
8.aaL
16ggJk
8ggL
8aaJ
=
8.aaL
16ggJk
8ggL
8aaJ
=
8.aaL
16ggJk
8ggL
8eeJ
=
4cc
8ddL
8eeJ
=
8.ffL
16ggJk
8ffL
8eeJ
=
8.ddL
16eeJk
8.ffL
16eeJk
=
8.ddL
16ccJk
8bL
8ddJ
=
4cc
8ggL
8aaJ
!!linebreak:original
=||
8.aaL
16ggJk
8ggL
8aaJ
=
8.aaL
16ggJk
8ggL
8aaJ
=
8.aaL
16ggJk
8ggL
8eeJ
=
4cc
8ddL
8eeJ
=
8.ffL
16ggJk
8ffL
8eeJ
=
8.ddL
16eeJk
8.ffL
16eeJk
=
8.ddL
16ccJk
8bL
8ddJ
=
4cc
8r
8aa
=||
8cc
8r
4r
==
*-
